assets/1. F-P/Green heart/Color/Green.Heart-color.svg

<svg width="100%" height="100%" viewBox="0 0 32 32" fill="none" xmlns="http://www.w3.org/2000/svg">
<path d="M15.1041 29.2015C15.6391 29.5 16.2827 29.4835 16.8146 29.1795C20.3976 27.1318 26.624 22.4179 29.0692 16.2948C32.6583 8.3224 24.2311 1.95834 18.4068 6.5356C17.7992 7.01307 17.0353 7.55954 16.5096 8.07719C16.2719 8.31124 15.8531 8.33511 15.6063 8.11061C14.9152 7.48177 13.835 6.67511 13.1413 6.20577C8.17592 2.84639 -0.858693 7.27463 2.99515 16.7255C4.40691 20.9677 11.1344 26.9862 15.1041 29.2015Z" fill="url(#paint0_radial_7320_6094)"/>
<path d="M15.1041 29.2015C15.6391 29.5 16.2827 29.4835 16.8146 29.1795C20.3976 27.1318 26.624 22.4179 29.0692 16.2948C32.6583 8.3224 24.2311 1.95834 18.4068 6.5356C17.7992 7.01307 17.0353 7.55954 16.5096 8.07719C16.2719 8.31124 15.8531 8.33511 15.6063 8.11061C14.9152 7.48177 13.835 6.67511 13.1413 6.20577C8.17592 2.84639 -0.858693 7.27463 2.99515 16.7255C4.40691 20.9677 11.1344 26.9862 15.1041 29.2015Z" fill="url(#paint1_radial_7320_6094)"/>
<path d="M15.1041 29.2015C15.6391 29.5 16.2827 29.4835 16.8146 29.1795C20.3976 27.1318 26.624 22.4179 29.0692 16.2948C32.6583 8.3224 24.2311 1.95834 18.4068 6.5356C17.7992 7.01307 17.0353 7.55954 16.5096 8.07719C16.2719 8.31124 15.8531 8.33511 15.6063 8.11061C14.9152 7.48177 13.835 6.67511 13.1413 6.20577C8.17592 2.84639 -0.858693 7.27463 2.99515 16.7255C4.40691 20.9677 11.1344 26.9862 15.1041 29.2015Z" fill="url(#paint2_linear_7320_6094)"/>
<path d="M15.1041 29.2015C15.6391 29.5 16.2827 29.4835 16.8146 29.1795C20.3976 27.1318 26.624 22.4179 29.0692 16.2948C32.6583 8.3224 24.2311 1.95834 18.4068 6.5356C17.7992 7.01307 17.0353 7.55954 16.5096 8.07719C16.2719 8.31124 15.8531 8.33511 15.6063 8.11061C14.9152 7.48177 13.835 6.67511 13.1413 6.20577C8.17592 2.84639 -0.858693 7.27463 2.99515 16.7255C4.40691 20.9677 11.1344 26.9862 15.1041 29.2015Z" fill="url(#paint3_linear_7320_6094)"/>
<path d="M15.1041 29.2015C15.6391 29.5 16.2827 29.4835 16.8146 29.1795C20.3976 27.1318 26.624 22.4179 29.0692 16.2948C32.6583 8.3224 24.2311 1.95834 18.4068 6.5356C17.7992 7.01307 17.0353 7.55954 16.5096 8.07719C16.2719 8.31124 15.8531 8.33511 15.6063 8.11061C14.9152 7.48177 13.835 6.67511 13.1413 6.20577C8.17592 2.84639 -0.858693 7.27463 2.99515 16.7255C4.40691 20.9677 11.1344 26.9862 15.1041 29.2015Z" fill="url(#paint4_radial_7320_6094)"/>
<path d="M15.1041 29.2015C15.6391 29.5 16.2827 29.4835 16.8146 29.1795C20.3976 27.1318 26.624 22.4179 29.0692 16.2948C32.6583 8.3224 24.2311 1.95834 18.4068 6.5356C17.7992 7.01307 17.0353 7.55954 16.5096 8.07719C16.2719 8.31124 15.8531 8.33511 15.6063 8.11061C14.9152 7.48177 13.835 6.67511 13.1413 6.20577C8.17592 2.84639 -0.858693 7.27463 2.99515 16.7255C4.40691 20.9677 11.1344 26.9862 15.1041 29.2015Z" fill="url(#paint5_radial_7320_6094)"/>
<path d="M15.1041 29.2015C15.6391 29.5 16.2827 29.4835 16.8146 29.1795C20.3976 27.1318 26.624 22.4179 29.0692 16.2948C32.6583 8.3224 24.2311 1.95834 18.4068 6.5356C17.7992 7.01307 17.0353 7.55954 16.5096 8.07719C16.2719 8.31124 15.8531 8.33511 15.6063 8.11061C14.9152 7.48177 13.835 6.67511 13.1413 6.20577C8.17592 2.84639 -0.858693 7.27463 2.99515 16.7255C4.40691 20.9677 11.1344 26.9862 15.1041 29.2015Z" fill="url(#paint6_radial_7320_6094)"/>
<path d="M15.1041 29.2015C15.6391 29.5 16.2827 29.4835 16.8146 29.1795C20.3976 27.1318 26.624 22.4179 29.0692 16.2948C32.6583 8.3224 24.2311 1.95834 18.4068 6.5356C17.7992 7.01307 17.0353 7.55954 16.5096 8.07719C16.2719 8.31124 15.8531 8.33511 15.6063 8.11061C14.9152 7.48177 13.835 6.67511 13.1413 6.20577C8.17592 2.84639 -0.858693 7.27463 2.99515 16.7255C4.40691 20.9677 11.1344 26.9862 15.1041 29.2015Z" fill="url(#paint7_radial_7320_6094)"/>
<path d="M15.1041 29.2015C15.6391 29.5 16.2827 29.4835 16.8146 29.1795C20.3976 27.1318 26.624 22.4179 29.0692 16.2948C32.6583 8.3224 24.2311 1.95834 18.4068 6.5356C17.7992 7.01307 17.0353 7.55954 16.5096 8.07719C16.2719 8.31124 15.8531 8.33511 15.6063 8.11061C14.9152 7.48177 13.835 6.67511 13.1413 6.20577C8.17592 2.84639 -0.858693 7.27463 2.99515 16.7255C4.40691 20.9677 11.1344 26.9862 15.1041 29.2015Z" fill="url(#paint8_radial_7320_6094)"/>
<g filter="url(#filter0_f_7320_6094)">
<path d="M15.7954 10.5408V17.3635C15.7954 18.2684 16.8911 18.6973 17.4551 17.9897C19.2002 15.8007 20.6078 13.1389 19.037 10.9647C18.4347 10.131 17.281 9.59695 16.3382 9.76686C15.9855 9.83043 15.7954 10.1824 15.7954 10.5408Z" fill="#2EBC6F"/>
</g>
<g filter="url(#filter1_f_7320_6094)">
<path d="M25.9076 6.91039C28.5057 7.97979 29.2883 12.0624 27.6555 16.0292C26.0228 19.9959 22.593 22.3447 19.9949 21.2753C17.3968 20.2058 16.6142 16.1232 18.2469 12.1565C19.8797 8.18974 23.3095 5.84098 25.9076 6.91039Z" fill="url(#paint9_radial_7320_6094)"/>
</g>
<g filter="url(#filter2_f_7320_6094)">
<path d="M14.8397 9.84594L15.0447 20.2121C8.16972 13.5246 6.93859 8.73396 9.27719 7.12719C10.9472 5.97977 14.0897 8.28344 14.8397 9.84594Z" fill="url(#paint10_radial_7320_6094)"/>
</g>
<g filter="url(#filter3_f_7320_6094)">
<path d="M21.831 6.38789C22.9177 6.25299 26.6173 6.50935 27.8729 9.71009" stroke="url(#paint11_linear_7320_6094)" stroke-opacity="0.5" stroke-width="0.25" stroke-linecap="round"/>
</g>
<g filter="url(#filter4_f_7320_6094)">
<path d="M8.44077 6.41333C9.52741 6.27843 12.4647 6.41333 14.8398 9.84607" stroke="url(#paint12_linear_7320_6094)" stroke-opacity="0.5" stroke-width="0.25" stroke-linecap="round"/>
</g>
<defs>
<filter id="filter0_f_7320_6094" x="13.7954" y="7.73535" width="7.92259" height="12.6079" filterUnits="userSpaceOnUse" color-interpolation-filters="sRGB">
<feFlood flood-opacity="0" result="BackgroundImageFix"/>
<feBlend mode="normal" in="SourceGraphic" in2="BackgroundImageFix" result="shape"/>
<feGaussianBlur stdDeviation="1" result="effect1_foregroundBlur_7320_6094"/>
</filter>
<filter id="filter1_f_7320_6094" x="15.8944" y="5.1521" width="14.1137" height="17.8813" filterUnits="userSpaceOnUse" color-interpolation-filters="sRGB">
<feFlood flood-opacity="0" result="BackgroundImageFix"/>
<feBlend mode="normal" in="SourceGraphic" in2="BackgroundImageFix" result="shape"/>
<feGaussianBlur stdDeviation="0.75" result="effect1_foregroundBlur_7320_6094"/>
</filter>
<filter id="filter2_f_7320_6094" x="5.19226" y="3.81812" width="12.8525" height="19.394" filterUnits="userSpaceOnUse" color-interpolation-filters="sRGB">
<feFlood flood-opacity="0" result="BackgroundImageFix"/>
<feBlend mode="normal" in="SourceGraphic" in2="BackgroundImageFix" result="shape"/>
<feGaussianBlur stdDeviation="1.5" result="effect1_foregroundBlur_7320_6094"/>
</filter>
<filter id="filter3_f_7320_6094" x="20.706" y="5.2356" width="8.29191" height="5.59961" filterUnits="userSpaceOnUse" color-interpolation-filters="sRGB">
<feFlood flood-opacity="0" result="BackgroundImageFix"/>
<feBlend mode="normal" in="SourceGraphic" in2="BackgroundImageFix" result="shape"/>
<feGaussianBlur stdDeviation="0.5" result="effect1_foregroundBlur_7320_6094"/>
</filter>
<filter id="filter4_f_7320_6094" x="7.31576" y="5.25586" width="8.64903" height="5.71533" filterUnits="userSpaceOnUse" color-interpolation-filters="sRGB">
<feFlood flood-opacity="0" result="BackgroundImageFix"/>
<feBlend mode="normal" in="SourceGraphic" in2="BackgroundImageFix" result="shape"/>
<feGaussianBlur stdDeviation="0.5" result="effect1_foregroundBlur_7320_6094"/>
</filter>
<radialGradient id="paint0_radial_7320_6094" cx="0" cy="0" r="1" gradientUnits="userSpaceOnUse" gradientTransform="translate(15.7698 5.63351) rotate(90) scale(25.0559 26.6012)">
<stop offset="0.204279" stop-color="#31C66A"/>
<stop offset="0.527969" stop-color="#40B98A"/>
<stop offset="1" stop-color="#43A395"/>
</radialGradient>
<radialGradient id="paint1_radial_7320_6094" cx="0" cy="0" r="1" gradientUnits="userSpaceOnUse" gradientTransform="translate(12.2147 29.6894) rotate(-57.2932) scale(30.305 28.3828)">
<stop offset="0.801342" stop-color="#5BE689" stop-opacity="0"/>
<stop offset="1" stop-color="#5BE689"/>
</radialGradient>
<linearGradient id="paint2_linear_7320_6094" x1="17.6324" y1="16.133" x2="25.6448" y2="25.6684" gradientUnits="userSpaceOnUse">
<stop offset="0.694491" stop-color="#8590CE" stop-opacity="0"/>
<stop offset="0.933555" stop-color="#8590CE"/>
</linearGradient>
<linearGradient id="paint3_linear_7320_6094" x1="16.6391" y1="16.5303" x2="7.15219" y2="26.4394" gradientUnits="userSpaceOnUse">
<stop offset="0.694491" stop-color="#8590CE" stop-opacity="0"/>
<stop offset="0.885417" stop-color="#7E8DE2"/>
</linearGradient>
<radialGradient id="paint4_radial_7320_6094" cx="0" cy="0" r="1" gradientUnits="userSpaceOnUse" gradientTransform="translate(15.8949 6.06438) rotate(90) scale(26.6875 33.0073)">
<stop offset="0.733021" stop-color="#408B91" stop-opacity="0"/>
<stop offset="0.894692" stop-color="#408B91"/>
</radialGradient>
<radialGradient id="paint5_radial_7320_6094" cx="0" cy="0" r="1" gradientUnits="userSpaceOnUse" gradientTransform="translate(19.9647 13.3769) rotate(137.379) scale(15.9679 23.4343)">
<stop offset="0.615628" stop-color="#408B91" stop-opacity="0"/>
<stop offset="1" stop-color="#408B91"/>
</radialGradient>
<radialGradient id="paint6_radial_7320_6094" cx="0" cy="0" r="1" gradientUnits="userSpaceOnUse" gradientTransform="translate(19.4647 27.6894) rotate(-126.7) scale(33.6751 34.168)">
<stop offset="0.66943" stop-color="#409157" stop-opacity="0"/>
<stop offset="1" stop-color="#409157"/>
</radialGradient>
<radialGradient id="paint7_radial_7320_6094" cx="0" cy="0" r="1" gradientUnits="userSpaceOnUse" gradientTransform="translate(15.4472 13.8154) rotate(90) scale(17.499 19.705)">
<stop offset="0.764272" stop-color="#8590CE" stop-opacity="0"/>
<stop offset="0.933555" stop-color="#8590CE"/>
</radialGradient>
<radialGradient id="paint8_radial_7320_6094" cx="0" cy="0" r="1" gradientUnits="userSpaceOnUse" gradientTransform="translate(15.4472 13.8154) rotate(90) scale(17.499 17.6425)">
<stop offset="0.864278" stop-color="#ADB6E8" stop-opacity="0"/>
<stop offset="0.933555" stop-color="#ADB6E8"/>
</radialGradient>
<radialGradient id="paint9_radial_7320_6094" cx="0" cy="0" r="1" gradientUnits="userSpaceOnUse" gradientTransform="translate(27.0561 4.91403) rotate(113.398) scale(15.0883 5.91581)">
<stop stop-color="#48FF90"/>
<stop offset="1" stop-color="#48FF90" stop-opacity="0"/>
</radialGradient>
<radialGradient id="paint10_radial_7320_6094" cx="0" cy="0" r="1" gradientUnits="userSpaceOnUse" gradientTransform="translate(16.4022 11.8772) rotate(-135.541) scale(9.36958 16.6326)">
<stop stop-color="#80F2AD"/>
<stop offset="1" stop-color="#68EC9C" stop-opacity="0"/>
</radialGradient>
<linearGradient id="paint11_linear_7320_6094" x1="26.4598" y1="8.13095" x2="23.8056" y2="6.79221" gradientUnits="userSpaceOnUse">
<stop stop-color="#48FF90"/>
<stop offset="1" stop-color="#48FF90" stop-opacity="0"/>
</linearGradient>
<linearGradient id="paint12_linear_7320_6094" x1="13.0695" y1="8.15639" x2="10.4153" y2="6.81764" gradientUnits="userSpaceOnUse">
<stop stop-color="#48FF90"/>
<stop offset="1" stop-color="#48FF90" stop-opacity="0"/>
</linearGradient>
</defs>
</svg>

<svg width="100%" height="100%" viewBox="0 0 32 32" xmlns="http://www.w3.org/2000/svg"><path fill="url(#a)" d="M15.104 29.202a1.73 1.73 0 0 0 1.71-.023c3.584-2.047 9.81-6.761 12.255-12.884 3.59-7.973-4.838-14.337-10.662-9.76-.608.478-1.372 1.025-1.897 1.542-.238.234-.657.258-.904.034-.69-.63-1.771-1.436-2.465-1.905-4.965-3.36-14 1.069-10.146 10.52 1.412 4.242 8.14 10.26 12.11 12.476"/><path fill="url(#b)" d="M15.104 29.202a1.73 1.73 0 0 0 1.71-.023c3.584-2.047 9.81-6.761 12.255-12.884 3.59-7.973-4.838-14.337-10.662-9.76-.608.478-1.372 1.025-1.897 1.542-.238.234-.657.258-.904.034-.69-.63-1.771-1.436-2.465-1.905-4.965-3.36-14 1.069-10.146 10.52 1.412 4.242 8.14 10.26 12.11 12.476"/><path fill="url(#c)" d="M15.104 29.202a1.73 1.73 0 0 0 1.71-.023c3.584-2.047 9.81-6.761 12.255-12.884 3.59-7.973-4.838-14.337-10.662-9.76-.608.478-1.372 1.025-1.897 1.542-.238.234-.657.258-.904.034-.69-.63-1.771-1.436-2.465-1.905-4.965-3.36-14 1.069-10.146 10.52 1.412 4.242 8.14 10.26 12.11 12.476"/><path fill="url(#d)" d="M15.104 29.202a1.73 1.73 0 0 0 1.71-.023c3.584-2.047 9.81-6.761 12.255-12.884 3.59-7.973-4.838-14.337-10.662-9.76-.608.478-1.372 1.025-1.897 1.542-.238.234-.657.258-.904.034-.69-.63-1.771-1.436-2.465-1.905-4.965-3.36-14 1.069-10.146 10.52 1.412 4.242 8.14 10.26 12.11 12.476"/><path fill="url(#e)" d="M15.104 29.202a1.73 1.73 0 0 0 1.71-.023c3.584-2.047 9.81-6.761 12.255-12.884 3.59-7.973-4.838-14.337-10.662-9.76-.608.478-1.372 1.025-1.897 1.542-.238.234-.657.258-.904.034-.69-.63-1.771-1.436-2.465-1.905-4.965-3.36-14 1.069-10.146 10.52 1.412 4.242 8.14 10.26 12.11 12.476"/><path fill="url(#f)" d="M15.104 29.202a1.73 1.73 0 0 0 1.71-.023c3.584-2.047 9.81-6.761 12.255-12.884 3.59-7.973-4.838-14.337-10.662-9.76-.608.478-1.372 1.025-1.897 1.542-.238.234-.657.258-.904.034-.69-.63-1.771-1.436-2.465-1.905-4.965-3.36-14 1.069-10.146 10.52 1.412 4.242 8.14 10.26 12.11 12.476"/><path fill="url(#g)" d="M15.104 29.202a1.73 1.73 0 0 0 1.71-.023c3.584-2.047 9.81-6.761 12.255-12.884 3.59-7.973-4.838-14.337-10.662-9.76-.608.478-1.372 1.025-1.897 1.542-.238.234-.657.258-.904.034-.69-.63-1.771-1.436-2.465-1.905-4.965-3.36-14 1.069-10.146 10.52 1.412 4.242 8.14 10.26 12.11 12.476"/><path fill="url(#h)" d="M15.104 29.202a1.73 1.73 0 0 0 1.71-.023c3.584-2.047 9.81-6.761 12.255-12.884 3.59-7.973-4.838-14.337-10.662-9.76-.608.478-1.372 1.025-1.897 1.542-.238.234-.657.258-.904.034-.69-.63-1.771-1.436-2.465-1.905-4.965-3.36-14 1.069-10.146 10.52 1.412 4.242 8.14 10.26 12.11 12.476"/><path fill="url(#i)" d="M15.104 29.202a1.73 1.73 0 0 0 1.71-.023c3.584-2.047 9.81-6.761 12.255-12.884 3.59-7.973-4.838-14.337-10.662-9.76-.608.478-1.372 1.025-1.897 1.542-.238.234-.657.258-.904.034-.69-.63-1.771-1.436-2.465-1.905-4.965-3.36-14 1.069-10.146 10.52 1.412 4.242 8.14 10.26 12.11 12.476"/><g filter="url(#j)"><path fill="#2EBC6F" d="M15.795 10.54v6.823c0 .905 1.096 1.334 1.66.627 1.745-2.19 3.153-4.851 1.582-7.025-.602-.834-1.756-1.368-2.699-1.198-.353.063-.543.415-.543.774"/></g><g filter="url(#k)"><path fill="url(#l)" d="M25.908 6.91c2.598 1.07 3.38 5.152 1.747 9.12-1.632 3.966-5.062 6.315-7.66 5.245s-3.38-5.152-1.748-9.118C19.88 8.19 23.31 5.84 25.907 6.91"/></g><g filter="url(#m)"><path fill="url(#n)" d="m14.84 9.846.205 10.366C8.17 13.525 6.939 8.734 9.277 7.127c1.67-1.147 4.813 1.156 5.563 2.719"/></g><g filter="url(#o)"><path stroke="url(#p)" stroke-linecap="round" stroke-opacity=".5" stroke-width=".25" d="M21.831 6.388c1.087-.135 4.786.121 6.042 3.322"/></g><g filter="url(#q)"><path stroke="url(#r)" stroke-linecap="round" stroke-opacity=".5" stroke-width=".25" d="M8.44 6.413c1.087-.135 4.025 0 6.4 3.433"/></g><defs><radialGradient id="a" cx="0" cy="0" r="1" gradientTransform="matrix(0 25.0559 -26.6012 0 15.77 5.634)" gradientUnits="userSpaceOnUse"><stop offset=".204" stop-color="#31C66A"/><stop offset=".528" stop-color="#40B98A"/><stop offset="1" stop-color="#43A395"/></radialGradient><radialGradient id="b" cx="0" cy="0" r="1" gradientTransform="rotate(-57.293 33.282 3.665)scale(30.305 28.3828)" gradientUnits="userSpaceOnUse"><stop offset=".801" stop-color="#5BE689" stop-opacity="0"/><stop offset="1" stop-color="#5BE689"/></radialGradient><radialGradient id="e" cx="0" cy="0" r="1" gradientTransform="matrix(0 26.6875 -33.0073 0 15.895 6.064)" gradientUnits="userSpaceOnUse"><stop offset=".733" stop-color="#408B91" stop-opacity="0"/><stop offset=".895" stop-color="#408B91"/></radialGradient><radialGradient id="f" cx="0" cy="0" r="1" gradientTransform="matrix(-11.74996 10.8126 -15.86844 -17.2441 19.965 13.377)" gradientUnits="userSpaceOnUse"><stop offset=".616" stop-color="#408B91" stop-opacity="0"/><stop offset="1" stop-color="#408B91"/></radialGradient><radialGradient id="g" cx="0" cy="0" r="1" gradientTransform="rotate(-126.7 16.68 8.96)scale(33.6751 34.168)" gradientUnits="userSpaceOnUse"><stop offset=".669" stop-color="#409157" stop-opacity="0"/><stop offset="1" stop-color="#409157"/></radialGradient><radialGradient id="h" cx="0" cy="0" r="1" gradientTransform="matrix(0 17.499 -19.705 0 15.447 13.815)" gradientUnits="userSpaceOnUse"><stop offset=".764" stop-color="#8590CE" stop-opacity="0"/><stop offset=".934" stop-color="#8590CE"/></radialGradient><radialGradient id="i" cx="0" cy="0" r="1" gradientTransform="matrix(0 17.499 -17.6425 0 15.447 13.815)" gradientUnits="userSpaceOnUse"><stop offset=".864" stop-color="#ADB6E8" stop-opacity="0"/><stop offset=".934" stop-color="#ADB6E8"/></radialGradient><radialGradient id="l" cx="0" cy="0" r="1" gradientTransform="rotate(113.398 11.914 11.344)scale(15.0883 5.91581)" gradientUnits="userSpaceOnUse"><stop stop-color="#48FF90"/><stop offset="1" stop-color="#48FF90" stop-opacity="0"/></radialGradient><radialGradient id="n" cx="0" cy="0" r="1" gradientTransform="matrix(-6.68755 -6.56244 11.64945 -11.87155 16.402 11.877)" gradientUnits="userSpaceOnUse"><stop stop-color="#80F2AD"/><stop offset="1" stop-color="#68EC9C" stop-opacity="0"/></radialGradient><filter id="j" width="7.923" height="12.608" x="13.795" y="7.735" color-interpolation-filters="sRGB" filterUnits="userSpaceOnUse"><feFlood flood-opacity="0" result="BackgroundImageFix"/><feBlend in="SourceGraphic" in2="BackgroundImageFix" result="shape"/><feGaussianBlur result="effect1_foregroundBlur_7320_6094" stdDeviation="1"/></filter><filter id="k" width="14.114" height="17.881" x="15.894" y="5.152" color-interpolation-filters="sRGB" filterUnits="userSpaceOnUse"><feFlood flood-opacity="0" result="BackgroundImageFix"/><feBlend in="SourceGraphic" in2="BackgroundImageFix" result="shape"/><feGaussianBlur result="effect1_foregroundBlur_7320_6094" stdDeviation=".75"/></filter><filter id="m" width="12.852" height="19.394" x="5.192" y="3.818" color-interpolation-filters="sRGB" filterUnits="userSpaceOnUse"><feFlood flood-opacity="0" result="BackgroundImageFix"/><feBlend in="SourceGraphic" in2="BackgroundImageFix" result="shape"/><feGaussianBlur result="effect1_foregroundBlur_7320_6094" stdDeviation="1.5"/></filter><filter id="o" width="8.292" height="5.6" x="20.706" y="5.236" color-interpolation-filters="sRGB" filterUnits="userSpaceOnUse"><feFlood flood-opacity="0" result="BackgroundImageFix"/><feBlend in="SourceGraphic" in2="BackgroundImageFix" result="shape"/><feGaussianBlur result="effect1_foregroundBlur_7320_6094" stdDeviation=".5"/></filter><filter id="q" width="8.649" height="5.715" x="7.316" y="5.256" color-interpolation-filters="sRGB" filterUnits="userSpaceOnUse"><feFlood flood-opacity="0" result="BackgroundImageFix"/><feBlend in="SourceGraphic" in2="BackgroundImageFix" result="shape"/><feGaussianBlur result="effect1_foregroundBlur_7320_6094" stdDeviation=".5"/></filter><linearGradient id="c" x1="17.632" x2="25.645" y1="16.133" y2="25.668" gradientUnits="userSpaceOnUse"><stop offset=".694" stop-color="#8590CE" stop-opacity="0"/><stop offset=".934" stop-color="#8590CE"/></linearGradient><linearGradient id="d" x1="16.639" x2="7.152" y1="16.53" y2="26.439" gradientUnits="userSpaceOnUse"><stop offset=".694" stop-color="#8590CE" stop-opacity="0"/><stop offset=".885" stop-color="#7E8DE2"/></linearGradient><linearGradient id="p" x1="26.46" x2="23.806" y1="8.131" y2="6.792" gradientUnits="userSpaceOnUse"><stop stop-color="#48FF90"/><stop offset="1" stop-color="#48FF90" stop-opacity="0"/></linearGradient><linearGradient id="r" x1="13.069" x2="10.415" y1="8.156" y2="6.818" gradientUnits="userSpaceOnUse"><stop stop-color="#48FF90"/><stop offset="1" stop-color="#48FF90" stop-opacity="0"/></linearGradient></defs></svg>
